X: 242
T: The First New Dutch Skipper
M:6/4
L:1/4
N:p26 missing in my copy; this is John Offord's version
B: Walsh "Third Book of the most Celebrated jiggs, Lancashire hornpipes, ..."
K:D
D2AF2D | D2AF2D | ABcd2A | ABcd2D | D2AF2D | D2AF2D | ABcdCB | EF^GA3 ||
e2ee2c | d2ef3 | efgf3 | efgf3 | gfegfe | fedc2B | d2AF2B | A2dc2d | e2eagf | efcd3 ||
M:6/8
L:1/8
K:Dm
dDE FED | DDE FED | def eag | fed e^ca | dDE FED | DDE FED | def eag | fed edc | =BA^GA3 ||
A_Bc cdc | cdA BAG | =Bcd ded | fed e^cA | afd e^cA | fede^cA | agf efg | Ad^cd2 ||
K:D
a | dcd ABc | dAFD2d | def eag | fed cBA | dcdABc | dAc eAe | fed cBA | AECA,2e | ecA ecA |
efgg2f | efg gfe | dcB dcB | Bdf B/c/d/e/f | bfdB3 | FGA FGA | dAF GFE | GBe GBe |
Bcd cBA | defecA | def ecA | dcdABc | dAFD3 ||

%%sep 1 1 500
%%sep 1 1 500
